!!!COM: Haydn, Franz Joseph
!!!OPR: String Quartet in D Minor
!!!ONM: Opus 103
!!!OTL: Affettuoso 
!!!OMV: 2
!!!SCT: H III:83
!!!SCA: Thematisch-bibliographisches Werkevererzeichnis (A. van Hoboken)
!!!YOR: Offenbach Edition 2377, 1807
!!!EED: Frances Bennion
!!!ENC: Frances Bennion
!!!CDT: 1732/3/31/-1809/5/31/
!!!OCY: Österreich
!!!YEC: Copyright (c) 1994, 2000 Center for Computer Assisted Research in the Humanities
!!!YEM: Rights to all derivative editions reserved.
!!!YEM: Refer to licensing agreement for further details.
!!!YEN: United States of America
**kern	**kern	**kern	**kern
*k[b-]	*k[b-]	*k[b-]	*k[b-]
*d:	*d:	*d:	*d:
*clefF	*clefF	*clefC3	*clefF4
*M3/4	*M3/4	*M3/4	*M3/4
*tb24	*tb24	*tb24	*tb24
=1	=1	=1	=1
4d 4dd	2A 2f	2F 2A	2DD
8.dd	.	.	.
16ff	.	.	.
4aa	4r	4r	4r
=2	=2	=2	=2
2a	4r	4r	4r
.	4e	4e	4c#
4f#	4e-	4A	4c
=3	=3	=3	=3
4g	2d	2B-	2B-
8.g	.	.	.
16b-	.	.	.
4dd	4r	4r	4r
=4	=4	=4	=4
2e	4r	2.r	4r
.	4d-	.	4B-
4f	4c	.	4A
=5	=5	=5	=5
4d#	4r	4r	4r
4e	4B	4r	4G#
4c#	4B-	4E	4G
=6	=6	=6	=6
4d	2A	4F	4F
8.d	.	4E	4E
16e	.	.	.
4f	4G#	4B	4D
=7	=7	=7	=7
4e	4A	4c	4C
4a	4e	8.c	8.C
.	.	16d	16D
4g#	8.B	4e	4E
.	16c	.	.
=8	=8	=8	=8
4a	4A	4A	4AA
4r	2r	2r	4E
4r	.	.	4A
=9	=9	=9	=9
4cc#	4r	4r	2.r
8.cc#	4a	4g	.
16ee	.	.	.
4aa	4a	4g	.
=10	=10	=10	=10
4dd	4r	4r	2.r
8.dd	4a	4f	.
16ff	.	.	.
4aa	4a	4f	.
=11	=11	=11	=11
4r	4r	4r	4FF#
4cc	4a	8.d	8.FF#
.	.	16A	16AA
[4cc	[4a	4F#	4D
=12	=12	=12	=12
4cc]	4a]	4r	4GG
4b-	4d	8.G	8.GG
.	.	16B-	16BB-
4b-	[4g	[4e-	4E-
=13	=13	=13	=13
8a	4g]	4e-]	4C
8cc	.	.	.
8ee-	4g	4c	4AA
8cc	.	.	.
8a	8f#	8c	4D
8f#	8a	8d	.
=14	=14	=14	=14
8g	8g	8G	8GG
8b-	8b-	8B-	8BB-
8dd	8dd	8d	8D
8b-	8b-	8B-	8BB-
8gg	8gg	8g	8G
8dd	8dd	8d	8D
=15	=15	=15	=15
8bb-	8bb-	4b-	4B-
8r	4.r	.	.
2cc#	.	4r	2r
.	4b-	4g	.
=16	=16	=16	=16
8aa	4r	4r	2.r
8r	.	.	.
2dd	4r	4r	.
.	4a	4f	.
=17	=17	=17	=17
8.cc#	4g	4e	2.r
16ee	.	.	.
4gg	4ee	4c#	.
4ff	4dd	8.d	.
.	.	16f	.
=18	=18	=18	=18
2ff	2dd	8a	2.r
.	.	8g#	.
.	.	8a	.
.	.	8A	.
4ee	4cc#	8g	.
.	.	8e	.
=19	=19	=19	=19
4dd 4d	2dd 2f	2A 2f	2DD
8.dd	.	.	.
16ff	.	.	.
4aa	4r	4r	4r
=20	=20	=20	=20
2a	4r	4r	4r
.	4e-	4c	4FF#
4f#	4e-	4c	4AA
=21	=21	=21	=21
4g	2d	2B-	2BB-
8.g	.	.	.
16b-	.	.	.
4dd	4r	4r	4r
=22	=22	=22	=22
2e	4r	4r	4r
.	4B-	4G	4C
4f	4B-	4G	4D-
=23	=23	=23	=23
2e	4r	4r	4r
.	4B-	4G	4C
4f	4B-	4G	4D-
=24	=24	=24	=24
4e	4r	4r	4r
4g	8A	4e	4CC#
.	8a	.	.
4f	4a	4A	4DD
=25	=25	=25	=25
4e	4g	4B-	4GG
4d	4f	4A	4AA
4c#	4e	4G	4AA
=26	=26	=26	=26
4d	4d	4F	4BB-
4cc#	4b-	4g	2r
4dd	4b-	4g	.
=27	=27	=27	=27
4dd#	4b-	4g	4r
4ee	4b-	4g	4c#
4r	4b-	4g	4d
=28	=28	=28	=28
4r	4b-	4g	4d#
4cc#	4b-	4g	4e
4dd	4b-	4g	4r
=29	=29	=29	=29
4dd#	4b-	4g	4r
4ee	4b-	4g	4c#
4r	4b-	4g	4d
=30	=30	=30	=30
4r	4b-	4g	4d#
4cc#	4b-	4g	4e
4dd	4a	4f	4r
=31	=31	=31	=31
4ee	4g	4e	4r
4gg	4ee	4c#	4A
4ff	4dd	4d	4B-
=32	=32	=32	=32
4ee	8.b-	4G	4G
.	16g	.	.
4dd	4f	4A	4A
4cc#	4e	4A	8A
.	.	.	8G
=33	=33	=33	=33
4cc	2.e-	2.A	2.F#
8.cc	.	.	.
16ff#	.	.	.
4aa	.	.	.
=34	=34	=34	=34
4b-	2.d	2.B-	2.G
8.b-	.	.	.
16dd	.	.	.
4gg	.	.	.
=35	=35	=35	=35
4ff	2.dd 2.f	2.B	2.G#
8.ff	.	.	.
16bb	.	.	.
4ddd	.	.	.
=36	=36	=36	=36
2.r	2.r	2.r	2.r
=37	=37	=37	=37
2.r	4g	4B-	4r
.	4g	4B-	4CC#
.	4g	4B-	4DD
=38	=38	=38	=38
4r	4g	4B-	4DD#
4cc#	4g	4B-	4EE
4dd	4g	4B-	4r
=39	=39	=39	=39
4dd#	4g	4B-	4r
4ee	4b-	4g	4c#
4r	4b-	4g	4d
=40	=40	=40	=40
4r	4b-	4g	4d#
4ccc#	4b-	4g	4e
4ddd	4b-	4g	4r
=41	=41	=41	=41
4ddd#	4b-	4g	4r
4eee	4b-	4g	4C#
4fff	4a	4f	4D
=42	=42	=42	=42
2.fff#	4dd	2.a	2C
.	4.ee-	.	.
.	.	.	4c
.	8a	.	.
=43	=43	=43	=43
4ggg	4dd	8.g	4B
.	.	16d	.
2ggg#	8.dd	8.f	4B-
.	16ee	16e	.
.	4ff	8.d	4BB-
.	.	16d	.
=44	=44	=44	=44
4aaa	4ff	4d	4AA
4r	2r	2r	2r
24c 24A	.	.	.
24B	.	.	.
24c#	.	.	.
24d	.	.	.
24e	.	.	.
24f	.	.	.
=45	=45	=45	=45
8g	4ee 4g	4a 4c# 4e	4AA
16a	.	.	.
16b	.	.	.
16cc#	2r	2r	2r
16dd	.	.	.
16ee	.	.	.
16ff	.	.	.
16gg	.	.	.
16aa	.	.	.
16bb	.	.	.
16ccc#	.	.	.
=46	=46	=46	=46
4ddd	4dd 4f	4f 4A	4DD
4r	2r	2r	2r
4r	.	.	.
==	==	==	==
*-	*-	*-	*-
!!!RWG1: This file contains only pitch and duration data.
!!!RWG2: Transposing instruments are not transposed.
!!!RWG3: Spines may have incompatible meters.
!!!RWG4: Durations of rests and tied notes may be interpreted.
!!!RWG: Key is interpreted using the Humdrum key tool.
!!!GTL: 10 Divertimentos
!!!AFT: stage1
!!!END: 1997/04/15
!!format changes:
!!content changes:
!!public access: complete
!!!KEY: 2401300660
!!!EMD: Converted from MuseData to Humdrum Dec 16, 2000, by Andreas Kornstaedt using muse2kern.
